other/soundcore.svg

<?xml version="1.0" encoding="UTF-8" standalone="no"?>
<svg
   xmlns:dc="http://purl.org/dc/elements/1.1/"
   xmlns:cc="http://creativecommons.org/ns#"
   xmlns:rdf="http://www.w3.org/1999/02/22-rdf-syntax-ns#"
   xmlns:svg="http://www.w3.org/2000/svg"
   xmlns="http://www.w3.org/2000/svg"
   xmlns:sodipodi="http://sodipodi.sourceforge.net/DTD/sodipodi-0.dtd"
   xmlns:inkscape="http://www.inkscape.org/namespaces/inkscape"
   viewBox="0 0 48 48"
   version="1.1"
   id="svg8"
   sodipodi:docname="soundcore.svg"
   inkscape:version="1.0.2 (e86c870879, 2021-01-15)">
  <metadata
     id="metadata12">
    <rdf:RDF>
      <cc:Work
         rdf:about="">
        <dc:format>image/svg+xml</dc:format>
        <dc:type
           rdf:resource="http://purl.org/dc/dcmitype/StillImage" />
        <dc:title />
      </cc:Work>
    </rdf:RDF>
  </metadata>
  <sodipodi:namedview
     pagecolor="#ffffff"
     bordercolor="#666666"
     borderopacity="1"
     objecttolerance="10"
     gridtolerance="10"
     guidetolerance="10"
     inkscape:pageopacity="0"
     inkscape:pageshadow="2"
     inkscape:window-width="1920"
     inkscape:window-height="1015"
     id="namedview10"
     showgrid="true"
     inkscape:zoom="11.313709"
     inkscape:cx="18.54569"
     inkscape:cy="24.340107"
     inkscape:window-x="960"
     inkscape:window-y="32"
     inkscape:window-maximized="1"
     inkscape:current-layer="svg8"
     showguides="true"
     inkscape:guide-bbox="true"
     inkscape:snap-midpoints="true"
     inkscape:snap-others="true"
     inkscape:snap-text-baseline="true"
     inkscape:snap-object-midpoints="true"
     inkscape:snap-center="true"
     inkscape:snap-global="true"
     inkscape:document-rotation="0">
    <inkscape:grid
       type="xygrid"
       id="grid859"
       empspacing="8" />
  </sodipodi:namedview>
  <defs
     id="defs4">
    <style
       id="style2">.a{fill:none;stroke:#fff;stroke-linecap:round;stroke-linejoin:round;}</style>
    <style
       id="style833">.cls-1{fill:#f60;}</style>
  </defs>
  <path
     style="fill:#000000;stroke-width:0.0689595"
     id="path849"
     d="" />
  <path
     id="path876"
     style="fill:none;stroke:#ffffff;stroke-width:1;stroke-linecap:round;stroke-linejoin:round;stroke-miterlimit:4;stroke-dasharray:none;stroke-opacity:1"
     d="m 16.48363,41.998364 c -1.586925,-0.362185 -2.880976,-1.09856 -4.114929,-2.341587 -1.684008,-1.696386 -2.5191388,-3.58394 -2.7583488,-6.23438 -0.1032743,-1.144298 0.1960846,-3.361675 0.6282108,-4.653203 0.73451,-2.195278 2.3559,-4.569487 4.038251,-5.913233 1.135033,-0.906589 3.083067,-1.880249 4.443861,-2.221119 1.32607,-0.332175 3.233469,-0.357599 4.496347,-0.05993 0.891117,0.210039 2.359845,0.873494 2.798287,1.264043 0.336369,0.299626 0.488404,0.134564 0.59589,-0.646962 0.05287,-0.384411 0.257196,-0.929891 0.462152,-1.233787 2.016095,-1.736413 6.127,-8.080248 5.364251,-3.017156 -0.204792,1.158784 -0.835645,4.81246 -1.401893,8.119278 -0.566249,3.30682 -1.131713,6.509977 -1.256588,7.118128 -0.599429,2.919254 -2.200737,5.584745 -4.445498,7.399849 -2.113555,1.70901 -4.025812,2.466478 -6.462287,2.559786 -1.019724,0.03905 -1.805984,-0.0069 -2.387706,-0.139727 z M 20.22978,37 c 2.542522,-0.897054 4.792172,-4.20538 4.792172,-7.047351 0,-1.628709 -0.780533,-3.316262 -1.885461,-4.076474 -3.33448,-2.294182 -8.5347,1.799819 -8.531873,6.716927 0.0019,3.503405 2.543235,5.494265 5.625162,4.406898 z m 9.975273,-23.566823 c 1.789834,-1.356988 4.579229,-2.866056 6.724099,-3.637751 1.057237,-0.3803783 1.057237,-0.3803783 1.20596,-1.4381227 0.286887,-2.0403655 0.328512,-2.509012 0.222843,-2.509012 -0.179756,0 -2.013089,0.5476603 -3.108014,0.9284398 -2.410995,0.8384659 -6.386172,3.0286865 -6.549176,3.6084299 -0.03581,0.127365 -0.196563,1.133444 -0.357222,2.235718 -0.160659,1.102273 -0.347648,2.211808 -0.415527,2.465634 -0.123414,0.461503 -0.123414,0.461503 0.662161,-0.281545 0.432069,-0.408675 1.158764,-1.025981 1.614876,-1.371791 z" />
</svg>

<svg xmlns="http://www.w3.org/2000/svg" viewBox="0 0 48 48"><defs><style>.a{fill:none;stroke:#fff;stroke-linecap:round;stroke-linejoin:round;}</style></defs><path class="a" d="M16.48,42a8.12,8.12,0,0,1-4.11-2.34,9.39,9.39,0,0,1-2.76-6.24,14.61,14.61,0,0,1,.63-4.65,13.6,13.6,0,0,1,4-5.91,13.74,13.74,0,0,1,4.44-2.23,10.84,10.84,0,0,1,4.5-.05A8.84,8.84,0,0,1,26,21.84c.34.3.49.13.6-.65.05-.38.39-1.81.39-1.81,2-1.74,6.3-5.69,5.44-2.44-.21,1.16-.84,4.81-1.4,8.12s-1.14,6.51-1.26,7.12a12.92,12.92,0,0,1-4.45,7.4,10.24,10.24,0,0,1-6.46,2.56A9.64,9.64,0,0,1,16.48,42Zm3.75-5A8.18,8.18,0,0,0,25,30a5.16,5.16,0,0,0-1.88-4.07c-3.34-2.3-8.54,1.8-8.54,6.71C14.61,36.1,17.15,38.09,20.23,37Zm10-23.57A28.73,28.73,0,0,1,36.93,9.8C38,9.42,38,9.42,38.13,8.36c.29-2,.33-2.51.23-2.51a32.26,32.26,0,0,0-3.11.93c-2.41.84-6.39,3-6.55,3.61,0,.12-.2,1.13-.36,2.23s-.34,2.21-.41,2.47c-.13.46-.13.46.66-.28C29,14.4,29.75,13.78,30.2,13.43Z"/></svg>
